X: 191
T: Mr Robert Hunter's Strathspey
C: by John Pringle
B: John Pringle "Collection of Reels Strathspeys & Jigs", 1801 p.19#1
Z: 2011 John Chambers <jc:trillian.mit.edu>
R: strathspey
M: C
L: 1/8
K: D
V: 1
F/E/ | D>AF>d A<F~F>D | TE>DEF ~E>DB,E | D>AF>A G<BF<d | ~E>DE<A D2 D :|
|: A | d<fce ~B>AFd | A<Fd>B A<FDd | e<fd<f | B<dA<F | E>DE<A D2 D :|
V: 2 clef=bass middle=d
z | d2d2 d2d2 | c2A2 A2G2 | d2d2 e2d2 | A2A2 d2d :|
|: z | f2a2 g2d2 | d2d2 f2d2 | c2d2 g2f2 | a2A2 d2d :|

%%sep 2 1 500

